X: 31990
T: Peekaboo
R: polka
M: 2/4
K: Bminor
Bc de|fd Bd|ce dc|Bc de|
Bc de|fd Bd|ce dc|B2 B2|
Bc da|ef dB|ce dc|Bc de|
Bc da|ef dB|ce dc|B2 B2||
fg fd|B/c/d/e/ fd|ce dc|Bc de|
fg fd|B/c/d/e/ fd|ce dc|B2 B2|
fg fd|B/c/d/e/ fd|f/e/d/c/ Bd/c/|d/c/B d/c/B/A/|
Bc da|ef dB|ce dc|B2 B2||
bc' ba|ba fb|af ed|B/c/d/e/ fa|
bc' ba|ba fe|df ed|B2 B2|

